T: Skraddar Quadrille, The
M: 4/4
L: 1/8
K: Gmaj
g2 d2 dedc | B2 G2 G3 g | e2 eg f2 fg | agfe d2 gf |g2 d2 dedc | B2 G2 G3 g | e2 eg f2 fa | g6 :|a4 abag | f4 fgfe | d2 d2 c2 c2 | d2 d2 defg |a4 abag | f4 fgfe | d2 d2 c2 c2 | d6 :|G2 G2 GBdB | G2 G2 GBdB | c2 ec B2 dB | AGFG A2 dB |G2 G2 GBdB | G2 G2 GBdB | c2 ec D2 FA | G6:|B3 d dedc | B3 d dedc | c2 B2 c2 B2 | A3 d d4 |d4 e2 f2 | g4 agfe | d2 c2 BcAB | G6 :|
